X:1
T:#
%%score [ 1 2 3 4 ]
L:1/8
Q:1/4=76
M:4/4
K:Bb
V:1 treble nm="Midi_54"
V:2 treble nm="Midi_41"
V:3 treble-8 nm="Midi_69"
V:4 bass nm="Midi_43"
V:1
"^Poco Lento" z2 | z8 | z8 | z4 z2"^molto dolce"!pp! d2 |[M:6/4] c3 F F2- FG B2 c2 |[M:4/4] d8 | %6
w: |||E-|gi- di- us, * * * *||
[M:2/4] f4 |[M:4/4]!<(! A2 Bc d2 f2!<)! | =e2 d2 |!>(! !courtesy!=c4"^Rit." d4!>)! | %10
w: Du|koors die * dood, du|liets mij|'t~le- ven.|
 z2"^a tempo" g2!mp! d2 f2 | c2 e2 B2 dd |[M:3/4]!>(! A4 A2!>)! |"^cresc." B4 c2- | %14
w: Dat was ge-|zel- schap goed en- de|fijn, Het|scheen, t'een|
[M:4/4]"^rall." cd B2- B2!>(! AG | G2 !courtesy!=F2 !fermata!G4!>)! | %16
w: * * moes * te ge-|stor- ven zijn.|
"^Rectitando"!<(! d4 dd dd!<)! |[M:3/4]!mf! g4 d2 | d2 c4 |!p!!<(! d3 d dd!<)! | %20
w: Nu bes- tu in den|troon ver-|he- ven|Klaar- der dan der|
!mf!!>(! g4 d2!>)! | d4 dd | f3 f =ed |[M:4/4] !courtesy!=c2 d4 d2 | c3 !courtesy!=F FG B2- | %25
w: zon- ne-|schijn Al- le|vreugd is dij ge-|ge- ven. E-|gi- di- us, waar bes-|
 B2 A2 F4 |[M:3/4] D4 d2 | F4 d2 | E4 c2 | D4 B2 | C4 F2 | A2 G4 | B4 A2 | G2 d4 | c2 BA G2- | G6 | %36
w: * tu ble-|ven? Mij|langt naar|dij, ge-|zel- le|mijn, Du|koors die|dood, du|liets mij|'t~le * * ven.||
 !fermata!G2 z2 d2 | d6- | d6 | d2 c4 | d4 G2 | A2 B2 c2 | B4 B2 | A2 A4 | G4 c2 | g2 d2 d2 | %46
w: * Nu|bid||* voor|mij, En-|de~in * de|we- reld|lij- den|pijn; Ver-|wa- re mijn|
 d4 d2 | d2 c4 | d2 G2 d2 | f4 f2 | =e3 e d2 | =e2 A4 | d6- | d6 | d6 | d6 | d6 | %57
w: ste- de|dij be-|ne- ven, Ik|moet nog|zin- gen een|lie- de-|kijn,|||||
 !fermata!d2 z2 z2 |[M:4/4] z4 z2 d2 |[M:4/4] c3 F F4- | F2 G2 B2 A2 | F4 D4 | z4 z2 d2- | %63
w: |E-|gi- di- us,|* waar bes- tu|ble- ven|Mij|
 dc f4 !courtesy!_e2 | d2 c2 B2- (3B cd | c4 z4 |[M:2/4] z4 |[M:4/4] z2 F2 G2 B2 | A2 B2 c2 de | %69
w: * * langt naar|dij, ge- zel * le *|mijn;||du liets mij|'t~le * ven, du *|
 fe d2- dc B2 | A8 | !fermata!=B8 |] %72
w: liets * * * * mij|'t~le-|ven.|
V:2
 z2 | z8 | z8 | z4 z2!pp! G2 |[M:6/4]"^molto dolce" F3 C C2- CD F2 G2 |[M:4/4] A8 |[M:2/4] G4 | %7
w: |||E-|gi- di- us * * * *||Du|
[M:4/4]!<(! F2 G2 A2 GA!<)! | B2 B2 |!>(! A4 A4!>)! | z2!mp! B2 A2 _A2 | G2 _G2 D2 =GD | %12
w: koors, die dood, du *|liets mij|'t~le- ven|Dat was ge-|zel- schap goed en- de|
[M:3/4]!>(! =E4 ^F2!>)! |"^cresc." G4 A2 |[M:4/4] A2 G4!>(! E2 | D2 D2 !fermata!D4!>)! | %16
w: fijn, Het|scheen, ~t'een|moes- te ge-|stor- ven zijn.|
!<(! =B4 BB BB!<)! |[M:3/4]!mf! !courtesy!_B4 B2 | B4 A2 |!p!!<(! c2 =B2 _BB!<)! | %20
w: Nu bes- tu in den|troon ver-|he- ven|Klaar- der dan der|
!mf! (3ABc BA B2 | B4 GG | A3 A BB |[M:4/4] A2 A4 z2 | z8 | z8 |[M:3/4] z2 z2 D2 | E4 D2 | D4 C2 | %29
w: zon * * * * ne-|schijn Al- le|vreugd is dij ge-|ge- ven|||Mij|langt naar|dij, ge-|
 C4 B,2 | A,4 z2 | z2 D2 F2- | F2 E2 F2 | C4 D2 | =E2 E4 | !courtesy!_E4 E2- | !fermata!E2 z2 dc | %37
w: zel- le|mijn,|Du koors|* * die|dood, du|liets mij|'t~le- ven.|* Nu *|
 =B6 | !courtesy!_B6- | B4 A2 | BA G2 G2 | G4 G2 | G4 G2 | G2 !courtesy!=F4 | G4 G2 | c3 c =B2 | %46
w: bid||* voor|mij, * * En-|de~in de|we- reld|lij- den|pijn, Ver-|wa- re mijn|
 !courtesy!_B4 B2 | B4 A2 | BA G2 G2 | A4 A2 | ^G3 G G2 | !courtesy!=G4 G2 | ^F4 D2 | =E4 ^F2 | %54
w: ste- de|dij be-|ne- * ven, Ik|moet nog|zin- gen een|lie- de-|kijn; Noch-|thans moet|
 G2 G2 G2 | A4 G2 | ^F6- | !fermata!F2 z2 z2 |[M:4/4] z2 !courtesy!=F2 E3 B, |[M:4/4] B,6 C2 | %60
w: im- mer ge-|stor- ven|zijn.||E- gi- di-|us waar|
 E2 D2 B,4 | G,4 z4 | z2 F2- FD G2- | G2 F4 F2 | F2 F2 F2 F2 | F4 z4 |[M:2/4] z4 | %67
w: bes- tu ble-|ven|Mij * * langt|* * naar|dij, ge- zel- le|mijn;||
[M:4/4] z2 F2 E2 D2 | F2 G2 A2 A2 | F2 BA G4- | G4 !courtesy!=F4 | !fermata!G8 |] %72
w: du liets mij|'t~le * ven, du|liets mij * 't~le||ven.|
V:3
"^Egidius, waar bestu bleven?""^Jan Nieland (1903-1963)"!p! d2 |"^espr." c3 F F4- | F2 G2 B2 A2 | %3
w: E-|gi- di- us|* waar bes- tu|
 F4 D4 |[M:6/4] z6 z2 z2!mp! e2 |[M:4/4] g2 fg (3d2 c2 B2 |[M:2/4][K:treble-8] c2 d2 | %7
w: ble- ven|Mij|langt naar dij, * * ge-|zel- le|
[M:4/4]!<(! e2 d2 c2 d2!<)! | g2 f2 |!>(! =e4 f4!>)! | z2!mp! d2 ^f2 !courtesy!=c2 | e2 B2 d2 Bd | %12
w: mijn; * * du|liets mij|'t~le- ven|Dat was ge-|zel- schap goed en- de|
[M:3/4][K:treble-8]!>(! ^c4 d2!>)! |"^cresc." d4 f2 |[M:4/4] f2 d4!>(! c2 | %15
w: fijn, Het|scheen, t'een|moes- te ge-|
 A2 A2 !fermata!=B4!>)! |!<(! d4 dd dd!<)! |[M:3/4][K:treble-8]!mf! d4- (3d ef | =e4 _e2 | %19
w: stor- ven zijn.|Nu bes- tu in den|troon * ver *|he- ven|
!p!!<(! d2 d2 dd!<)! |!mf! e4- (3e de | =e4 ee | f3 a gf |[M:4/4][K:treble-8] =e2 ^f4 z2 | %24
w: Klaar- der dan der|zon * ne *|schijn A- le|vreugd is dij ge-|ge- ven.|
 z2 !courtesy!_e2 e3 !courtesy!=F | e6 d2 |[M:3/4] c2 B2 A2 | B2 A2 G2 | c2 B2 A2 | B2 A2 G2 | %30
w: E- gi *|* di-|us, * Mij|langt * naar|dij, * ge-|zel * le|
 A4 z2 | z6 | z2 z2 G2 | fe dc BA | G6 | !courtesy!=A6- | !fermata!A2 z2 d2 | g4 d2 | d4 ef | %39
w: mij,||Du|liets * * * mij *|'t~le-|ven.|* Nu|bid voor|mij, ik *|
 =e4 _e2 | dc B2 cd | G4 A2 | B4 c2 | d4 c2 | B2 cd e2 | d3 d d2 | d4 ef | =e4 _e2 | dc B2 d2 | %49
w: moet nog|sne * ven, En *|de~in du|we- reld|lij- den|pijn, * * Ver-|wa- re- mijn|ste- de *|dij be-|ne * ven, Ik|
 d4 d2 | d3 d d2 | ^c4 c2 | A4 [^FA]2 | [GB]4 [Ac]2 | [Bd]2 [Bd]2 [Bd]2 | [c!courtesy!_e]4 [Bd]2 | %56
w: moet nog|zin- gen een|lie- de-|kijn; Noch-|thans moet|im- mer ge-|stor- ven|
 [Ad]6- | !fermata![Ad]2 z2 d2 |[M:4/4] c3 !courtesy!=F F4- |[M:4/4][K:treble-8] F2 G2 B2 A2 | %60
w: zijn.|* E-|gi- di- us|* waar bes- tu|
 F4 D4 | z2 c2- cA d2- | d2 c2 B4- | B2 A4 A2 | A2 A2 B2 B2 | A4 z2 F2 |[M:2/4] G2 B2 | %67
w: ble- ven|Mij * * langt||* * naar|dij, ge- zel- le|mijn; Du|koors die|
[M:4/4] A2 z2 z4 | z4 f4 | de f2 e4 | d8 | !fermata!d8 |] %72
w: dood,|du|liets * mij 't~le||ven.|
V:4
 z2 | z2!p! D,2"^espr." F,2 E,D, | E,2 C,2 D,3 E, | F,2 G,2 A,2 B,C | %4
w: |E- gi- di *|us, waar bes- tu|ble * * * *|
[M:6/4] D2!>(! G,4- G,2 z2!>)! z2 |[M:4/4] z8 |[M:2/4] E,4 |[M:4/4]!<(! D,2!mp! C,2 B,,2 B,2!<)! | %8
w: * ven? *||Du|koors die dood, du|
 G,2 G,2 |!>(! A,4 D,4!>)! | z2 G,2 D2 F,2 | C2 E,2 B,2 G,B, |[M:3/4]!>(! A,4 D,2!>)! | %13
w: liets mij|'t~le- ven|Dat was ge-|zel- schap goed en- de|fijn, Het|
"^cresc." G,4 F,E, |[M:4/4] D,2 G,4!>(! C,2 | D,2 D,2 !fermata![G,,D,]4!>)! | %16
w: scheen, t'een *|moes- te ge-|stor- ven zijn.|
!<(! G,4 G,G, G,G,!<)! |[M:3/4]!mf! G,4 G,2 | G,4 G,2 |!p!!<(! G,2 G,2 G,G,!<)! |!mf! G,4 G,2 | %21
w: Nu bes- tu in den|troon ver-|he- ven|Klaar- der dan der|zon- ne-|
 G,4 B,B, | D3 D G,G, |[M:4/4] A,2 D4 z2 | z2 D,2 D,4- | D,2 D,2 D,4- |[M:3/4] D,4 D,2 | %27
w: schijn Al- le|vreugd is dij ge-|ge- ven.|E- gi|* di- us,|* Mij|
 D,2 C,2 B,,2 | A,,2 G,,2 F,,2 | G,,2 F,2 E,2 | F,4 z2 | z6 | z6 | z2 z2 G,2 | C,4 C,2 | C,4 C,2- | %36
w: langt * naar|dij, * ge-|zel- * le|mijn,|||Du|liets mij|'t~le- ven.|
 !fermata!C,2 z2 z2 | z2 z2 D,2 | G,6- | G,4 G,2 | G,4 F,2 | E,4 E,2 | D,4 D,2 | D,4 D,2 | %44
w: |Nu|bid|* voor|mij, En-|de~in de|we- reld|lij- den|
 E,3 D, C,2 | G,3 G, G,2 | G,4 G,2 | G,4 G,2 | G,2 G,2 B,2 | A,4 D,2 | =B,3 B, _B,2 | A,4 A,2 | %52
w: pijn, * Ver-|wa- re mijn|ste- de|dij de-|ne- ven, Ik|moet nog|zin- gen een|lie- de-|
 D,6- | D,6 | D,6 | D,6 | D,6 | !fermata!D,2 z2 z2 |[M:4/4] z8 |[M:4/4] z2 D,2 C,3 F,, | F,,4 z4 | %61
w: kijn;|||||||E- gi- di-|us|
 z4 z2 F,2- | F,D, G,4 F,2 | E,2 D,4 D,2 | D,2 D,2 D,2 D,2 | F,4 z2 F,2 |[M:2/4] E,2 D,2 | %67
w: Mij|* * langt *|* * naar|dij, ge- zel- le|mijn; Du|koors die|
[M:4/4] F,2 z2 z4 | z4 F,4 | B,4 C4 | D4 D,4 | !fermata![G,,G,]8 |] %72
w: dood,|du|liets mij|'t~le *|ven.|

